packages/icons/raw/imported/ShopCart.svg

<svg width="32" height="32" viewBox="0 0 32 32" fill="none" xmlns="http://www.w3.org/2000/svg">
<path d="M7.93396 8.69231H23.0516C24.3165 8.69231 25.2638 9.85195 25.0113 11.0915L24.4535 13.8302C24.2791 14.6865 23.5689 15.3304 22.6996 15.4204L10.0371 16.7308M7.93396 8.69231L6.5 6.5M7.93396 8.69231L10.0371 16.7308M22.9906 19.6538H13.8234C12.0434 19.6538 10.4876 18.4528 10.0371 16.7308M13.6698 24.0384C13.6698 24.8456 13.0278 25.5 12.2359 25.5C11.4439 25.5 10.8019 24.8456 10.8019 24.0384C10.8019 23.2313 11.4439 22.5769 12.2359 22.5769C13.0278 22.5769 13.6698 23.2313 13.6698 24.0384ZM22.9906 24.0384C22.9906 24.8456 22.3486 25.5 21.5566 25.5C20.7647 25.5 20.1227 24.8456 20.1227 24.0384C20.1227 23.2313 20.7647 22.5769 21.5566 22.5769C22.3486 22.5769 22.9906 23.2313 22.9906 24.0384Z" stroke="black" stroke-linecap="round"/>
</svg>

<svg width="32" height="32" fill="none" xmlns="http://www.w3.org/2000/svg"><path d="M7.934 8.692h15.118a2 2 0 0 1 1.96 2.4l-.559 2.738a2 2 0 0 1-1.753 1.59l-12.663 1.31M7.934 8.693 6.5 6.5m1.434 2.192 2.103 8.039m12.954 2.923h-9.168a3.914 3.914 0 0 1-3.786-2.923m3.633 7.307c0 .808-.642 1.462-1.434 1.462-.792 0-1.434-.654-1.434-1.462 0-.807.642-1.461 1.434-1.461.792 0 1.434.654 1.434 1.461Zm9.32 0c0 .808-.641 1.462-1.433 1.462s-1.434-.654-1.434-1.462c0-.807.642-1.461 1.434-1.461.792 0 1.434.654 1.434 1.461Z" stroke="#000" stroke-linecap="round"/></svg>
